X:159
T:Putney Bowling Green. Ru1.159
B:Rutherford's Country Dances Vol 1, 1756
Z:village music project, Steve Mansfield July 2015
M:6/8
L:1/8
W:The 1st Cu. sets to the 2d Wo. and turns
W:his own Partner .| the 1st Wo. does the same :|
W:Gallop down and up again foot it and Cast off .|.
W:right Hand and Left :|
Q:3/8=90
K:D
|:Acd e2c | a2c e2c | Acd e2c | dBB B3 |
Acd edc | agf edc | dfd cec | B^GB d2B :|
cAA A2c | EAc e3 | aed cBA | EGB dcB |
Bcd ecA | fdB ecA | dfd cec | BGB d2B :|

